images/POLITICA_CALIDAD/ICONS/Icon Finanzas.svg

<svg width="91" height="91" viewBox="0 0 91 91" fill="none" xmlns="http://www.w3.org/2000/svg">
<circle cx="45.4114" cy="45.4114" r="45.4114" fill="white"/>
<path d="M57.8568 40.8934C56.4701 42.2773 55.199 43.5502 53.9251 44.8202C51.5287 47.2107 49.1308 49.6013 46.7329 51.9904C46.0188 52.7023 45.6475 52.6895 44.9677 51.9363C42.8069 49.5429 40.6461 47.1509 38.4853 44.7575C38.3682 44.628 38.2439 44.5041 38.1025 44.356C35.9589 46.496 33.8409 48.6103 31.7215 50.7232C30.4547 51.9875 30.4219 51.9875 29.1465 50.7161C28.5653 50.138 27.9826 49.5628 27.4056 48.9791C26.8629 48.4295 26.8629 48.0251 27.417 47.4713C30.7332 44.161 34.0523 40.8521 37.3727 37.546C37.9597 36.9608 38.3967 36.9751 38.9537 37.5916C41.1402 40.0092 43.3225 42.4296 45.5075 44.8501C45.6261 44.9811 45.7489 45.1064 45.8417 45.2046C48.5395 42.5151 51.2216 39.8412 53.9451 37.126C53.3396 37.126 52.7283 37.1289 52.1171 37.126C51.2859 37.1217 51.0045 36.8384 51.0031 35.9955C51.0002 34.9989 50.9974 34.0036 51.0045 33.007C51.0102 32.3122 51.3216 32.0032 52.0271 32.0032C55.3461 31.9989 58.6652 31.9989 61.9842 32.0032C62.6812 32.0046 62.9954 32.3193 62.9968 33.0184C63.0011 36.3273 63.0011 39.6361 62.9968 42.945C62.9954 43.6413 62.6797 43.9531 61.9814 43.9574C60.9459 43.9645 59.912 43.9645 58.8765 43.9574C58.1767 43.9531 57.8683 43.6427 57.8597 42.945C57.8511 42.3115 57.8568 41.6764 57.8568 40.8934ZM61.2573 33.7473C58.3924 33.7473 55.5661 33.7473 52.7412 33.7473C52.7412 34.3126 52.7412 34.8408 52.7412 35.4175C53.8151 35.4175 54.8634 35.4246 55.9117 35.4146C56.3558 35.4103 56.73 35.5015 56.9228 35.9471C57.1185 36.3999 56.9028 36.7273 56.5929 37.0363C53.2724 40.3438 49.9548 43.6541 46.6329 46.9616C46.046 47.5467 45.6161 47.5268 45.0534 46.906C44.0251 45.7698 42.9997 44.6308 41.9728 43.4946C40.6975 42.0822 39.4207 40.6698 38.2125 39.3315C35.1919 42.3414 32.1971 45.327 29.2551 48.2586C29.625 48.6359 30.0434 49.0645 30.4847 49.5158C30.6033 49.4034 30.7461 49.2724 30.8832 49.1371C33.0168 47.0114 35.1491 44.8842 37.2828 42.7585C37.9926 42.0523 38.3667 42.0694 39.048 42.824C41.2088 45.2188 43.371 47.6094 45.5304 50.0056C45.6461 50.1352 45.7389 50.2847 45.896 50.5011C46.1145 50.2405 46.2402 50.064 46.3901 49.9131C50.2119 46.0987 54.0365 42.2872 57.8583 38.4715C58.1839 38.1454 58.5095 37.8379 59.0222 38.0486C59.5264 38.2551 59.5835 38.6822 59.5721 39.1535C59.5578 39.723 59.5692 40.2925 59.5692 40.862C59.5692 41.3162 59.5692 41.7718 59.5692 42.226C60.1747 42.226 60.7032 42.226 61.2573 42.226C61.2573 39.3955 61.2573 36.5907 61.2573 33.7473Z" fill="url(#paint0_linear_103_3)"/>
<path d="M41.5373 67C40.9703 67 40.4419 67 39.8749 67C39.8749 62.1762 39.8749 57.3794 39.8749 52.5428C39.295 52.5428 38.7538 52.5428 38.1539 52.5428C38.1539 56.7829 38.1539 61.0243 38.1539 65.2915C37.5684 65.2915 37.0385 65.2915 36.4573 65.2915C36.4487 65.1234 36.4344 64.9526 36.4344 64.7817C36.433 60.5104 36.433 56.2404 36.4344 51.969C36.4344 51.0592 36.7001 50.7958 37.6112 50.7944C38.611 50.793 39.6107 50.7859 40.6104 50.7973C41.2445 50.8044 41.5715 51.1233 41.573 51.754C41.5772 56.7715 41.5744 61.7903 41.573 66.8078C41.5715 66.859 41.5544 66.9103 41.5373 67Z" fill="url(#paint1_linear_103_3)"/>
<path d="M60.4461 47.4029C59.8206 47.4029 59.2921 47.4029 58.7252 47.4029C58.7252 51.3725 58.7252 55.3164 58.7252 59.2987C58.1453 59.2987 57.6041 59.2987 57.0242 59.2987C57.0157 59.1264 56.9999 58.9542 56.9999 58.7833C56.9985 54.8152 56.9985 50.8471 56.9985 46.879C56.9985 45.9265 57.2527 45.6702 58.1939 45.6702C59.1936 45.6688 60.1933 45.6616 61.193 45.673C61.7971 45.6801 62.1342 45.9991 62.1356 46.5942C62.1427 50.7759 62.1385 54.9576 62.137 59.1392C62.137 59.1891 62.1142 59.2375 62.0956 59.3101C61.5615 59.3101 61.0331 59.3101 60.4461 59.3101C60.4461 55.3548 60.4461 51.3981 60.4461 47.4029Z" fill="url(#paint2_linear_103_3)"/>
<path d="M48.381 67C47.8254 67 47.297 67 46.73 67C46.73 63.3167 46.73 59.6575 46.73 55.9585C46.1502 55.9585 45.6089 55.9585 45.0091 55.9585C45.0091 59.629 45.0091 63.2996 45.0091 66.9986C44.4236 66.9986 43.8937 66.9986 43.2882 66.9986C43.2882 66.8306 43.2882 66.6597 43.2882 66.4903C43.2882 62.7884 43.2882 59.088 43.2882 55.3861C43.2882 54.4749 43.5538 54.2115 44.4636 54.2101C45.4633 54.2087 46.463 54.203 47.4627 54.2129C48.0754 54.2186 48.4224 54.529 48.4238 55.1156C48.431 59.0296 48.4253 62.945 48.4224 66.859C48.4224 66.8932 48.4038 66.926 48.381 67Z" fill="url(#paint3_linear_103_3)"/>
<path d="M34.6849 63.5843C34.1194 63.5843 33.591 63.5843 33.0226 63.5843C33.0226 60.7552 33.0226 57.9518 33.0226 55.1056C32.4427 55.1056 31.9029 55.1056 31.3016 55.1056C31.3016 57.9191 31.3016 60.7353 31.3016 63.5801C30.7161 63.5801 30.1877 63.5801 29.5793 63.5801C29.5793 63.4149 29.5793 63.2455 29.5793 63.076C29.5793 60.2284 29.5793 57.3823 29.5793 54.5347C29.5793 53.6221 29.8435 53.3572 30.7518 53.3558C31.7515 53.3544 32.7512 53.3487 33.7509 53.3587C34.3865 53.3658 34.7149 53.6833 34.7164 54.3112C34.7235 57.3367 34.7192 60.3609 34.7164 63.3864C34.7164 63.4391 34.7007 63.4889 34.6849 63.5843Z" fill="url(#paint4_linear_103_3)"/>
<path d="M53.5909 52.5286C52.9654 52.5286 52.437 52.5286 51.87 52.5286C51.87 55.3591 51.87 58.1639 51.87 61.0073C51.2902 61.0073 50.7489 61.0073 50.1719 61.0073C50.1633 60.8535 50.1462 60.6983 50.1462 60.5445C50.1448 57.6799 50.1448 54.8152 50.1462 51.9505C50.1462 51.072 50.419 50.7973 51.2887 50.7958C52.3056 50.7944 53.3239 50.7873 54.3407 50.7987C54.9448 50.8058 55.2804 51.1247 55.2819 51.7199C55.2904 54.4778 55.2847 57.2356 55.2833 59.9935C55.2833 60.0434 55.2604 60.0918 55.2419 60.1644C54.7077 60.1644 54.1793 60.1644 53.5924 60.1644C53.5909 57.6329 53.5909 55.1 53.5909 52.5286Z" fill="url(#paint5_linear_103_3)"/>
<path d="M66.9506 19.9013C70.2371 19.9013 72.9013 17.2371 72.9013 13.9506C72.9013 10.6642 70.2371 8 66.9506 8C63.6642 8 61 10.6642 61 13.9506C61 17.2371 63.6642 19.9013 66.9506 19.9013Z" stroke="url(#paint6_linear_103_3)" stroke-width="2" stroke-miterlimit="10"/>
<path d="M72.5877 17.0576C80.3661 24.4548 85.2149 34.9043 85.2149 46.487C85.2149 68.9136 67.034 87.0945 44.6074 87.0945C22.1809 87.0945 4 68.9136 4 46.487C4 32.5883 10.982 20.3215 21.6326 13" stroke="url(#paint7_linear_103_3)" stroke-width="2" stroke-miterlimit="10"/>
<defs>
<linearGradient id="paint0_linear_103_3" x1="27" y1="67.0008" x2="63" y2="67.0008" gradientUnits="userSpaceOnUse">
<stop stop-color="#1723FF"/>
<stop offset="1" stop-color="#30E35E"/>
</linearGradient>
<linearGradient id="paint1_linear_103_3" x1="27" y1="67.0008" x2="63" y2="67.0008" gradientUnits="userSpaceOnUse">
<stop stop-color="#1723FF"/>
<stop offset="1" stop-color="#30E35E"/>
</linearGradient>
<linearGradient id="paint2_linear_103_3" x1="27" y1="67.0008" x2="63" y2="67.0008" gradientUnits="userSpaceOnUse">
<stop stop-color="#1723FF"/>
<stop offset="1" stop-color="#30E35E"/>
</linearGradient>
<linearGradient id="paint3_linear_103_3" x1="27" y1="67.0008" x2="63" y2="67.0008" gradientUnits="userSpaceOnUse">
<stop stop-color="#1723FF"/>
<stop offset="1" stop-color="#30E35E"/>
</linearGradient>
<linearGradient id="paint4_linear_103_3" x1="27" y1="67.0008" x2="63" y2="67.0008" gradientUnits="userSpaceOnUse">
<stop stop-color="#1723FF"/>
<stop offset="1" stop-color="#30E35E"/>
</linearGradient>
<linearGradient id="paint5_linear_103_3" x1="27" y1="67.0008" x2="63" y2="67.0008" gradientUnits="userSpaceOnUse">
<stop stop-color="#1723FF"/>
<stop offset="1" stop-color="#30E35E"/>
</linearGradient>
<linearGradient id="paint6_linear_103_3" x1="61" y1="19.9016" x2="72.9013" y2="19.9016" gradientUnits="userSpaceOnUse">
<stop stop-color="#1723FF"/>
<stop offset="1" stop-color="#30E35E"/>
</linearGradient>
<linearGradient id="paint7_linear_103_3" x1="4" y1="87.0962" x2="85.2149" y2="87.0962" gradientUnits="userSpaceOnUse">
<stop stop-color="#1723FF"/>
<stop offset="1" stop-color="#30E35E"/>
</linearGradient>
</defs>
</svg>

<svg xmlns="http://www.w3.org/2000/svg" width="91" height="91" fill="none"><circle cx="45.411" cy="45.411" r="45.411" fill="#fff"/><path fill="url(#a)" d="M57.857 40.893c-1.387 1.384-2.658 2.657-3.932 3.927-2.396 2.39-4.794 4.781-7.192 7.17-.714.712-1.085.7-1.765-.054l-6.483-7.178c-.117-.13-.241-.254-.383-.402-2.143 2.14-4.261 4.254-6.38 6.367-1.267 1.264-1.3 1.264-2.576-.007-.58-.578-1.163-1.153-1.74-1.737-.543-.55-.543-.954.011-1.508 3.316-3.31 6.635-6.619 9.956-9.925.587-.585 1.024-.57 1.58.046 2.187 2.417 4.37 4.838 6.554 7.258.12.131.242.256.335.355l8.103-8.079c-.605 0-1.217.003-1.828 0-.831-.004-1.112-.288-1.114-1.13-.003-.997-.006-1.992.002-2.989.005-.695.317-1.004 1.022-1.004 3.32-.004 6.638-.004 9.957 0 .697.002 1.011.316 1.013 1.015.004 3.31.004 6.618 0 9.927-.002.696-.317 1.008-1.016 1.012-1.035.008-2.069.008-3.105 0-.7-.004-1.008-.314-1.016-1.012-.009-.633-.003-1.269-.003-2.052Zm3.4-7.146h-8.516v1.67c1.074 0 2.122.008 3.17-.002.445-.005.819.087 1.012.532.195.453-.02.78-.33 1.09-3.32 3.307-6.638 6.617-9.96 9.925-.587.585-1.017.565-1.58-.056-1.028-1.136-2.053-2.275-3.08-3.411l-3.76-4.163-8.958 8.927 1.23 1.257c.118-.113.261-.244.398-.379l6.4-6.379c.71-.706 1.084-.689 1.765.066 2.16 2.395 4.323 4.785 6.482 7.182.116.13.209.279.366.495.218-.26.344-.437.494-.588 3.822-3.814 7.646-7.626 11.468-11.441.326-.327.652-.634 1.164-.423.504.206.562.633.55 1.105-.014.569-.003 1.138-.003 1.708v1.364h1.688v-8.479Z"/><path fill="url(#b)" d="M41.537 67h-1.662V52.543h-1.721V65.29h-1.697c-.008-.168-.023-.338-.023-.51-.001-4.27-.001-8.54 0-12.812 0-.91.266-1.173 1.177-1.175 1-.001 2-.008 3 .003.634.007.96.326.962.957.004 5.018.001 10.036 0 15.054-.002.051-.019.102-.036.192Z"/><path fill="url(#c)" d="M60.446 47.403h-1.72v11.896h-1.702c-.008-.173-.024-.345-.024-.516-.002-3.968-.002-7.936-.002-11.904 0-.953.255-1.209 1.196-1.209 1-.001 2-.008 2.999.003.604.007.941.326.943.921.007 4.182.002 8.364.001 12.545 0 .05-.023.098-.041.171h-1.65V47.403Z"/><path fill="url(#d)" d="M48.381 67H46.73V55.959h-1.72v11.04h-1.722V55.386c0-.911.266-1.175 1.176-1.176 1-.001 1.999-.007 2.999.003.612.006.96.316.96.903.008 3.914.002 7.829 0 11.743 0 .034-.02.067-.042.141Z"/><path fill="url(#e)" d="M34.685 63.584h-1.662v-8.478h-1.721v8.474h-1.723v-9.045c0-.913.264-1.178 1.173-1.18 1 0 2-.006 2.999.004.636.007.964.324.965.952.008 3.026.003 6.05 0 9.075 0 .053-.015.103-.031.198Z"/><path fill="url(#f)" d="M53.59 52.529h-1.72v8.478h-1.698c-.009-.154-.026-.309-.026-.462V51.95c0-.878.273-1.153 1.143-1.154 1.017-.002 2.035-.009 3.052.003.604.007.94.326.94.92.01 2.759.004 5.517.002 8.274 0 .05-.023.099-.041.171h-1.65l-.001-7.635Z"/><path stroke="url(#g)" stroke-miterlimit="10" stroke-width="2" d="M66.95 19.901A5.95 5.95 0 1 0 66.95 8a5.95 5.95 0 0 0 0 11.901Z"/><path stroke="url(#h)" stroke-miterlimit="10" stroke-width="2" d="M72.588 17.058c7.778 7.397 12.627 17.846 12.627 29.429 0 22.427-18.181 40.607-40.608 40.607C22.181 87.094 4 68.915 4 46.487 4 32.588 10.982 20.321 21.633 13"/><defs><linearGradient id="a" x1="27" x2="63" y1="67.001" y2="67.001" gradientUnits="userSpaceOnUse"><stop stop-color="#1723FF"/><stop offset="1" stop-color="#30E35E"/></linearGradient><linearGradient id="b" x1="27" x2="63" y1="67.001" y2="67.001" gradientUnits="userSpaceOnUse"><stop stop-color="#1723FF"/><stop offset="1" stop-color="#30E35E"/></linearGradient><linearGradient id="c" x1="27" x2="63" y1="67.001" y2="67.001" gradientUnits="userSpaceOnUse"><stop stop-color="#1723FF"/><stop offset="1" stop-color="#30E35E"/></linearGradient><linearGradient id="d" x1="27" x2="63" y1="67.001" y2="67.001" gradientUnits="userSpaceOnUse"><stop stop-color="#1723FF"/><stop offset="1" stop-color="#30E35E"/></linearGradient><linearGradient id="e" x1="27" x2="63" y1="67.001" y2="67.001" gradientUnits="userSpaceOnUse"><stop stop-color="#1723FF"/><stop offset="1" stop-color="#30E35E"/></linearGradient><linearGradient id="f" x1="27" x2="63" y1="67.001" y2="67.001" gradientUnits="userSpaceOnUse"><stop stop-color="#1723FF"/><stop offset="1" stop-color="#30E35E"/></linearGradient><linearGradient id="g" x1="61" x2="72.901" y1="19.902" y2="19.902" gradientUnits="userSpaceOnUse"><stop stop-color="#1723FF"/><stop offset="1" stop-color="#30E35E"/></linearGradient><linearGradient id="h" x1="4" x2="85.215" y1="87.096" y2="87.096" gradientUnits="userSpaceOnUse"><stop stop-color="#1723FF"/><stop offset="1" stop-color="#30E35E"/></linearGradient></defs></svg>
